contributed-vectors/status.svg

<svg xmlns="http://www.w3.org/2000/svg" xml:space="preserve" style="fill-rule:evenodd;clip-rule:evenodd;stroke-linejoin:round;stroke-miterlimit:2" viewBox="0 0 192 192"><circle cx="88" cy="88" r="88" style="fill:#728dbe" transform="translate(8 8)"/><path d="M23.231 21.514c1.129.117 2.257.235 3.645.158 3.759-.21 6.037-2.142 5.875-5.029-.165-2.938-3.194-4.748-6.226-4.578-4.94.275-8.573 4.617-8.982 9.579a12.033 12.033 0 0 1 2.043-.288c1.388-.077 2.516.04 3.645.158Zm-9.684 6.422c.155 2.693 3.026 4.352 5.898 4.197 4.68-.253 8.122-4.233 8.509-8.782a11.76 11.76 0 0 1-1.935.265c-1.315.071-2.384-.037-3.454-.145-1.069-.108-2.138-.216-3.453-.145-3.561.193-5.719 1.963-5.565 4.61Z" style="fill:#fff" transform="translate(17.54 21.102) scale(3.38934)"/></svg>

<?xml version="1.0" encoding="UTF-8" standalone="no"?>
<!DOCTYPE svg PUBLIC "-//W3C//DTD SVG 1.1//EN" "http://www.w3.org/Graphics/SVG/1.1/DTD/svg11.dtd">
<svg width="100%" height="100%" viewBox="0 0 192 192" version="1.1" xmlns="http://www.w3.org/2000/svg" xmlns:xlink="http://www.w3.org/1999/xlink" xml:space="preserve" xmlns:serif="http://www.serif.com/" style="fill-rule:evenodd;clip-rule:evenodd;stroke-linejoin:round;stroke-miterlimit:2;">
    <g transform="matrix(1,0,0,1,8,8)">
        <circle cx="88" cy="88" r="88" style="fill:rgb(114,141,190);"/>
    </g>
    <g transform="matrix(3.38934,0,0,3.38934,17.5405,21.1017)">
        <path d="M23.231,21.514C24.36,21.631 25.488,21.749 26.876,21.672C30.635,21.462 32.913,19.53 32.751,16.643C32.586,13.705 29.557,11.895 26.525,12.065C21.585,12.34 17.952,16.682 17.543,21.644C18.214,21.487 18.92,21.393 19.586,21.356C20.974,21.279 22.102,21.396 23.231,21.514ZM13.547,27.936C13.702,30.629 16.573,32.288 19.445,32.133C24.125,31.88 27.567,27.9 27.954,23.351C27.318,23.495 26.65,23.582 26.019,23.616C24.704,23.687 23.635,23.579 22.565,23.471C21.496,23.363 20.427,23.255 19.112,23.326C15.551,23.519 13.393,25.289 13.547,27.936Z" style="fill:white;"/>
    </g>
</svg>
